icons/circle/48/gpk-log.svg

<svg xmlns="http://www.w3.org/2000/svg" viewBox="0 0 48 48">
 <defs>
  <linearGradient id="linearGradient3764" x1="1" x2="47" gradientUnits="userSpaceOnUse" gradientTransform="matrix(0,-1,1,0,-1.5e-6,47.999998)">
   <stop style="stop-color:#46b0a9;stop-opacity:1"/>
   <stop offset="1" style="stop-color:#51b9b4;stop-opacity:1"/>
  </linearGradient>
 </defs>
 <g>
  <path d="m 36.31 5 c 5.859 4.062 9.688 10.831 9.688 18.5 c 0 12.426 -10.07 22.5 -22.5 22.5 c -7.669 0 -14.438 -3.828 -18.5 -9.688 c 1.037 1.822 2.306 3.499 3.781 4.969 c 4.085 3.712 9.514 5.969 15.469 5.969 c 12.703 0 23 -10.298 23 -23 c 0 -5.954 -2.256 -11.384 -5.969 -15.469 c -1.469 -1.475 -3.147 -2.744 -4.969 -3.781 z m 4.969 3.781 c 3.854 4.113 6.219 9.637 6.219 15.719 c 0 12.703 -10.297 23 -23 23 c -6.081 0 -11.606 -2.364 -15.719 -6.219 c 4.16 4.144 9.883 6.719 16.219 6.719 c 12.703 0 23 -10.298 23 -23 c 0 -6.335 -2.575 -12.06 -6.719 -16.219 z" style="opacity:0.05"/>
  <path d="m 41.28 8.781 c 3.712 4.085 5.969 9.514 5.969 15.469 c 0 12.703 -10.297 23 -23 23 c -5.954 0 -11.384 -2.256 -15.469 -5.969 c 4.113 3.854 9.637 6.219 15.719 6.219 c 12.703 0 23 -10.298 23 -23 c 0 -6.081 -2.364 -11.606 -6.219 -15.719 z" style="opacity:0.1"/>
  <path d="m 31.25 2.375 c 8.615 3.154 14.75 11.417 14.75 21.13 c 0 12.426 -10.07 22.5 -22.5 22.5 c -9.708 0 -17.971 -6.135 -21.12 -14.75 a 23 23 0 0 0 44.875 -7 a 23 23 0 0 0 -16 -21.875 z" style="opacity:0.2"/>
 </g>
 <g>
  <path d="m 24 1 c 12.703 0 23 10.297 23 23 c 0 12.703 -10.297 23 -23 23 -12.703 0 -23 -10.297 -23 -23 0 -12.703 10.297 -23 23 -23 z" style="fill:url(#linearGradient3764);fill-opacity:1"/>
 </g>
 <g transform="matrix(1.3336308,0,0,1.3336308,-8.0058157,-8.0044819)">
  <g>
   <!-- color: #51b9b4 -->
   <g>
    <path d="m 22.12 15.75 a 6.374 6.374 0 0 0 -6.374 6.374 6.374 6.374 0 0 0 6.374 6.374 6.374 6.374 0 0 0 3.951 -1.381 l 3.042 3.04 1.043 -1.043 -3.037 -3.036 a 6.374 6.374 0 0 0 1.375 -3.954 6.374 6.374 0 0 0 -6.374 -6.374 z m 0 1.312 a 5.061 5.061 0 0 1 5.061 5.061 5.061 5.061 0 0 1 -5.061 5.061 5.061 5.061 0 0 1 -5.061 -5.061 5.061 5.061 0 0 1 5.061 -5.061 z m 8.345 11.927 -1.479 1.479 3.276 3.278 1.481 -1.481 -3.278 -3.276 z" style="fill:#000;opacity:0.1;fill-opacity:1;stroke:none;fill-rule:nonzero"/>
   </g>
  </g>
 </g>
 <g>
  <path d="m 40.03 7.531 c 3.712 4.084 5.969 9.514 5.969 15.469 0 12.703 -10.297 23 -23 23 c -5.954 0 -11.384 -2.256 -15.469 -5.969 4.178 4.291 10.01 6.969 16.469 6.969 c 12.703 0 23 -10.298 23 -23 0 -6.462 -2.677 -12.291 -6.969 -16.469 z" style="opacity:0.1"/>
 </g>
 <g>
  <path d="m 28.24,29.719 1.48,-1.48 3.277,3.277 -1.48,1.48 M 28.24,29.719" transform="matrix(1.3336308,0,0,1.3336308,-8.0058157,-8.0044819)" style="fill:#f9f9f9;fill-opacity:1;stroke:none;fill-rule:nonzero"/>
  <path d="m 25.09,26.13 1.043,-1.043 3.277,3.277 -1.043,1.043 M 25.09,26.13" transform="matrix(1.3336308,0,0,1.3336308,-8.0058157,-8.0044819)" style="fill:#f9f9f9;fill-opacity:1;stroke:none;fill-rule:nonzero"/>
  <path d="M 20.5 12 A 8.5 8.5 0 0 0 12 20.5 A 8.5 8.5 0 0 0 20.5 29 A 8.5 8.5 0 0 0 29 20.5 A 8.5 8.5 0 0 0 20.5 12 z M 20.5 13.75 A 6.75 6.75 0 0 1 27.25 20.5 A 6.75 6.75 0 0 1 20.5 27.25 A 6.75 6.75 0 0 1 13.75 20.5 A 6.75 6.75 0 0 1 20.5 13.75 z" style="fill:#f9f9f9;opacity:1;fill-opacity:1;stroke:none"/>
 </g>
</svg>

<svg xmlns="http://www.w3.org/2000/svg" viewBox="0 0 48 48">
  <defs>
    <linearGradient id="a" x1="1" x2="47" gradientUnits="userSpaceOnUse" gradientTransform="rotate(-90 24 24)">
      <stop stop-color="#46b0a9"/>
      <stop offset="1" stop-color="#51b9b4"/>
    </linearGradient>
  </defs>
  <path d="M36.31 5c5.859 4.062 9.688 10.831 9.688 18.5 0 12.426-10.07 22.5-22.5 22.5-7.669 0-14.438-3.828-18.5-9.688a23.24 23.24 0 0 0 3.781 4.969 22.923 22.923 0 0 0 15.469 5.969c12.703 0 23-10.298 23-23a22.92 22.92 0 0 0-5.969-15.469A23.216 23.216 0 0 0 36.31 5zm4.969 3.781A22.911 22.911 0 0 1 47.498 24.5c0 12.703-10.297 23-23 23a22.909 22.909 0 0 1-15.719-6.219C12.939 45.425 18.662 48 24.998 48c12.703 0 23-10.298 23-23 0-6.335-2.575-12.06-6.719-16.219z" opacity=".05"/>
  <path d="M41.28 8.781a22.923 22.923 0 0 1 5.969 15.469c0 12.703-10.297 23-23 23A22.92 22.92 0 0 1 8.78 41.281 22.911 22.911 0 0 0 24.499 47.5c12.703 0 23-10.298 23-23A22.909 22.909 0 0 0 41.28 8.781z" opacity=".1"/>
  <path d="M31.25 2.375C39.865 5.529 46 13.792 46 23.505c0 12.426-10.07 22.5-22.5 22.5-9.708 0-17.971-6.135-21.12-14.75a23 23 0 0 0 44.875-7 23 23 0 0 0-16-21.875z" opacity=".2"/>
  <path d="M24 1c12.703 0 23 10.297 23 23S36.703 47 24 47 1 36.703 1 24 11.297 1 24 1z" fill="url(#a)"/>
  <path d="M21.494 13a8.5 8.5 0 0 0-8.5 8.5 8.5 8.5 0 0 0 8.5 8.501 8.5 8.5 0 0 0 5.27-1.841l4.056 4.054 1.391-1.391-4.05-4.05a8.5 8.5 0 0 0 1.834-5.272 8.5 8.5 0 0 0-8.5-8.5zm0 1.75a6.75 6.75 0 0 1 6.75 6.75 6.75 6.75 0 0 1-6.75 6.749 6.75 6.75 0 0 1-6.75-6.75 6.75 6.75 0 0 1 6.75-6.75zm11.13 15.906L30.65 32.63 35.02 37l1.975-1.975-4.372-4.369z" opacity=".1"/>
  <g>
    <path d="M40.03 7.531A22.922 22.922 0 0 1 45.999 23c0 12.703-10.297 23-23 23A22.92 22.92 0 0 1 7.53 40.031C11.708 44.322 17.54 47 23.999 47c12.703 0 23-10.298 23-23 0-6.462-2.677-12.291-6.969-16.469z" opacity=".1"/>
  </g>
  <g fill="#f9f9f9">
    <path d="M29.656 31.63l1.974-1.974 4.37 4.37L34.026 36m-4.37-4.37M25.455 26.843l1.391-1.39 4.37 4.37-1.39 1.39m-4.371-4.37"/>
    <path d="M20.5 12a8.5 8.5 0 0 0-8.5 8.5 8.5 8.5 0 0 0 8.5 8.5 8.5 8.5 0 0 0 8.5-8.5 8.5 8.5 0 0 0-8.5-8.5zm0 1.75a6.75 6.75 0 0 1 6.75 6.75 6.75 6.75 0 0 1-6.75 6.75 6.75 6.75 0 0 1-6.75-6.75 6.75 6.75 0 0 1 6.75-6.75z"/>
  </g>
</svg>
